findly-builder/apps/searchassist/src/assets/icons/content/carousel-result-opt.svg

<svg width="58" height="58" viewBox="0 0 58 58" fill="none" xmlns="http://www.w3.org/2000/svg">
<circle cx="29" cy="29" r="28.5" fill="white" stroke="#FFBCA5"/>
<path d="M14 27.3332L44 27.3332L44 30.6665L14 30.6665L14 27.3332ZM14 42.3332L44 42.3332L44 38.9998L14 38.9998L14 42.3332ZM14 18.9998L44 18.9998L44 15.6665L14 15.6665L14 18.9998Z" fill="#FF784B"/>
<path d="M14.0002 38.9998L34.0002 38.9998L34.0002 42.3332L14.0002 42.3332L14.0002 38.9998ZM14.0002 18.9998L37.3335 18.9998L37.3335 15.6665L14.0002 15.6665L14.0002 18.9998ZM14.0002 30.6665L23.1668 30.6665L23.1668 27.3332L14.0002 27.3332L14.0002 30.6665Z" fill="#FFBCA5"/>
<path d="M32.3333 37.3333L34.8333 37.3333C35.25 37.3333 35.6667 37.75 35.6667 38.1667L35.6667 43.1667C35.6667 43.5833 35.25 44 34.8333 44L32.3333 44C31.9167 44 31.5 43.5833 31.5 43.1667L31.5 38.1667C31.5 37.75 31.9167 37.3333 32.3333 37.3333ZM34.8333 14.8333L34.8333 19.8333C34.8333 20.3333 35.25 20.6667 35.6667 20.6667L38.1667 20.6667C38.6667 20.6667 39 20.3333 39 19.8333L39 14.8333C39 14.3333 38.6667 14 38.1667 14L35.6667 14C35.25 14 34.8333 14.3333 34.8333 14.8333ZM20.6667 26.5L20.6667 31.5C20.6667 31.9167 21.0833 32.3333 21.5 32.3333L24 32.3333C24.4167 32.3333 24.8333 31.9167 24.8333 31.5L24.8333 26.5C24.8333 26.0833 24.4167 25.6667 24 25.6667L21.5 25.6667C21.0833 25.6667 20.6667 26.0833 20.6667 26.5Z" fill="#803C25"/>
</svg>

<svg width="58" height="58" fill="none" xmlns="http://www.w3.org/2000/svg"><circle cx="29" cy="29" r="28.5" fill="#fff" stroke="#FFBCA5"/><path d="M14 27.333h30v3.334H14v-3.334Zm0 15h30V39H14v3.333ZM14 19h30v-3.334H14V19Z" fill="#FF784B"/><path d="M14 39h20v3.333H14V39Zm0-20h23.334v-3.334H14V19Zm0 11.666h9.167v-3.333H14v3.334Z" fill="#FFBCA5"/><path d="M32.333 37.333h2.5c.417 0 .834.417.834.834v5c0 .416-.417.833-.834.833h-2.5c-.416 0-.833-.417-.833-.833v-5c0-.417.417-.834.833-.834Zm2.5-22.5v5c0 .5.417.834.834.834h2.5c.5 0 .833-.334.833-.834v-5c0-.5-.333-.833-.833-.833h-2.5a.835.835 0 0 0-.834.833ZM20.667 26.5v5c0 .417.416.833.833.833H24c.417 0 .833-.416.833-.833v-5c0-.417-.416-.833-.833-.833h-2.5c-.417 0-.833.416-.833.833Z" fill="#803C25"/></svg>
